packages/assets/static/images/icons/student.svg

<svg width="24" height="24" viewBox="0 0 24 24" xmlns="http://www.w3.org/2000/svg">
<path d="M21.2371 5.6591L12.2371 2.6591C12.0832 2.60777 11.9167 2.60777 11.7628 2.6591L2.76275 5.6591C2.61341 5.70888 2.48352 5.80439 2.39149 5.9321C2.29945 6.05981 2.24993 6.21324 2.24994 6.37066V13.8707C2.24994 14.0696 2.32896 14.2603 2.46961 14.401C2.61026 14.5416 2.80103 14.6207 2.99994 14.6207C3.19885 14.6207 3.38962 14.5416 3.53027 14.401C3.67092 14.2603 3.74994 14.0696 3.74994 13.8707V7.41129L6.899 8.46035C6.06234 9.81204 5.79628 11.4405 6.15925 12.9882C6.52223 14.5359 7.48455 15.8763 8.83494 16.715C7.14744 17.3769 5.68869 18.5741 4.62181 20.211C4.56633 20.2934 4.52779 20.3861 4.50843 20.4836C4.48908 20.5811 4.4893 20.6815 4.50907 20.7789C4.52885 20.8763 4.56779 20.9688 4.62363 21.051C4.67947 21.1332 4.7511 21.2035 4.83435 21.2578C4.9176 21.3121 5.01081 21.3493 5.10857 21.3673C5.20633 21.3853 5.30668 21.3836 5.4038 21.3624C5.50091 21.3413 5.59285 21.301 5.67427 21.244C5.75569 21.187 5.82496 21.1144 5.87806 21.0303C7.29088 18.8629 9.52213 17.6207 11.9999 17.6207C14.4778 17.6207 16.709 18.8629 18.1218 21.0303C18.2318 21.1938 18.4017 21.3075 18.5949 21.3467C18.788 21.3859 18.9888 21.3475 19.1538 21.2399C19.3189 21.1322 19.4349 20.9639 19.4769 20.7714C19.5188 20.5789 19.4833 20.3775 19.3781 20.211C18.3112 18.5741 16.8468 17.3769 15.1649 16.715C16.514 15.8763 17.4754 14.5368 17.8384 12.9902C18.2013 11.4437 17.9361 9.81633 17.1009 8.46504L21.2371 7.08691C21.3865 7.03716 21.5164 6.94166 21.6085 6.81395C21.7006 6.68623 21.7501 6.53279 21.7501 6.37535C21.7501 6.21791 21.7006 6.06446 21.6085 5.93675C21.5164 5.80904 21.3865 5.71354 21.2371 5.66379V5.6591ZM16.4999 11.6207C16.5001 12.3321 16.3317 13.0334 16.0083 13.6671C15.685 14.3008 15.216 14.8489 14.6399 15.2662C14.0637 15.6836 13.3968 15.9584 12.6939 16.0681C11.991 16.1778 11.2721 16.1193 10.5962 15.8974C9.92025 15.6755 9.30657 15.2964 8.80549 14.7914C8.30442 14.2864 7.93022 13.6697 7.7136 12.9921C7.49699 12.3144 7.44413 11.5951 7.55936 10.8931C7.67459 10.191 7.95463 9.52632 8.3765 8.95347L11.7628 10.0785C11.9167 10.1298 12.0832 10.1298 12.2371 10.0785L15.6234 8.95347C16.1932 9.72597 16.5004 10.6608 16.4999 11.6207ZM11.9999 8.58035L5.37181 6.37066L11.9999 4.16097L18.6281 6.37066L11.9999 8.58035Z"/>
</svg>

<svg viewBox="0 0 24 24" xmlns="http://www.w3.org/2000/svg" aria-hidden="true" fill="currentColor"><path d="m21.237 5.66-9-3a.75.75 0 0 0-.474 0l-9 3a.75.75 0 0 0-.513.71v7.5a.75.75 0 0 0 1.5 0V7.412l3.149 1.05a6 6 0 0 0 1.936 8.254c-1.688.662-3.146 1.86-4.213 3.496a.75.75 0 1 0 1.256.82c1.413-2.168 3.644-3.41 6.122-3.41s4.709 1.242 6.122 3.41a.75.75 0 0 0 1.256-.82c-1.067-1.637-2.531-2.834-4.213-3.496a6 6 0 0 0 1.936-8.25l4.136-1.378a.75.75 0 0 0 0-1.423zM16.5 11.62a4.499 4.499 0 1 1-8.123-2.667l3.386 1.126a.75.75 0 0 0 .474 0l3.386-1.126a4.5 4.5 0 0 1 .877 2.668M12 8.58 5.372 6.37 12 4.162l6.628 2.21z"/></svg>
